packages/design-system/src/icons/assets/logo_footer.svg

<svg width="77" height="24" viewBox="0 0 77 24" fill="none" xmlns="http://www.w3.org/2000/svg">
<path fill-rule="evenodd" clip-rule="evenodd" d="M12.7534 4.42269L10.4088 6.77295V3.5H6.18856V6.77295L3.91923 4.49813L0.932047 7.48674L3.1377 9.69772H0V11.6302H6.33908C6.74431 11.6302 7.14955 11.5315 7.46795 11.2762C8.27264 10.6378 8.41158 9.40756 8.41158 7.0457C8.41158 9.40756 8.55052 10.6378 9.3552 11.2762C9.6736 11.5257 10.0846 11.6302 10.4841 11.6302H16.7942V9.74995L16.7421 9.69772H13.4539L15.7348 7.41129L12.7476 4.41689L12.7534 4.42269ZM16.8 12.164H10.623C10.3509 12.164 10.0731 12.2163 9.82412 12.3265C8.60262 12.8778 8.41737 14.0617 8.41737 16.8181C8.41737 15.0656 8.16265 13.8702 7.74583 13.1216C7.40427 12.5122 6.73852 12.164 6.03804 12.164H0V13.934H3.26506L0.943625 16.261L3.93081 19.2554L6.18856 16.9922V20.3H10.4088V16.9922L12.8055 19.3947H12.8171L15.7927 16.4061L13.3323 13.9398H16.8V12.1698V12.164Z" fill="#C5C6CB"/>
<path d="M24.3058 18.6547C22.9347 18.6547 21.7881 18.1936 20.866 17.2715C19.956 16.3494 19.501 15.2088 19.501 13.8499C19.501 12.491 19.956 11.3504 20.866 10.4283C21.7881 9.50617 22.9347 9.0451 24.3058 9.0451C25.1915 9.0451 25.9984 9.25744 26.7264 9.6821C27.4544 10.1068 28.0065 10.677 28.3826 11.3929L26.3624 12.5759C26.1804 12.1998 25.9013 11.9025 25.5252 11.6841C25.1612 11.4657 24.7487 11.3565 24.2876 11.3565C23.5839 11.3565 23.0015 11.5931 22.5404 12.0663C22.0793 12.5274 21.8488 13.1219 21.8488 13.8499C21.8488 14.5658 22.0793 15.1603 22.5404 15.6335C23.0015 16.0946 23.5839 16.3251 24.2876 16.3251C24.7608 16.3251 25.1794 16.222 25.5434 16.0157C25.9195 15.7973 26.1986 15.5 26.3806 15.1239L28.419 16.2887C28.0186 17.0046 27.4544 17.5809 26.7264 18.0177C25.9984 18.4424 25.1915 18.6547 24.3058 18.6547ZM37.0897 17.2715C36.1555 18.1936 35.0149 18.6547 33.6681 18.6547C32.3213 18.6547 31.1808 18.1936 30.2465 17.2715C29.3244 16.3372 28.8633 15.1967 28.8633 13.8499C28.8633 12.5031 29.3244 11.3686 30.2465 10.4465C31.1808 9.51224 32.3213 9.0451 33.6681 9.0451C35.0149 9.0451 36.1555 9.51224 37.0897 10.4465C38.024 11.3686 38.4911 12.5031 38.4911 13.8499C38.4911 15.1967 38.024 16.3372 37.0897 17.2715ZM31.9027 15.6517C32.3759 16.1249 32.9644 16.3615 33.6681 16.3615C34.3719 16.3615 34.9603 16.1249 35.4335 15.6517C35.9067 15.1785 36.1433 14.5779 36.1433 13.8499C36.1433 13.1219 35.9067 12.5213 35.4335 12.0481C34.9603 11.5749 34.3719 11.3383 33.6681 11.3383C32.9644 11.3383 32.3759 11.5749 31.9027 12.0481C31.4417 12.5213 31.2111 13.1219 31.2111 13.8499C31.2111 14.5779 31.4417 15.1785 31.9027 15.6517ZM45.0204 9.0451C46.0153 9.0451 46.8343 9.37877 47.4774 10.0461C48.1326 10.7134 48.4602 11.6356 48.4602 12.8125V18.3999H46.1124V13.1037C46.1124 12.497 45.9486 12.036 45.621 11.7205C45.2934 11.3929 44.8566 11.2291 44.3106 11.2291C43.7039 11.2291 43.2186 11.4172 42.8546 11.7933C42.4906 12.1694 42.3086 12.7336 42.3086 13.4859V18.3999H39.9608V9.2999H42.3086V10.3191C42.8788 9.46977 43.7828 9.0451 45.0204 9.0451ZM54.9967 7.6619C53.7105 7.56484 53.0675 8.0805 53.0675 9.2089V9.2999H54.9967V11.5567H53.0675V18.3999H50.7197V11.5567H49.4093V9.2999H50.7197V9.2089C50.7197 7.92277 51.0776 6.94604 51.7935 6.2787C52.5093 5.61137 53.5771 5.32017 54.9967 5.4051V7.6619ZM58.0829 14.8145C58.3983 15.955 59.2537 16.5253 60.6491 16.5253C61.5469 16.5253 62.2264 16.222 62.6875 15.6153L64.5803 16.7073C63.6824 18.0056 62.3599 18.6547 60.6127 18.6547C59.1081 18.6547 57.9009 18.1997 56.9909 17.2897C56.0809 16.3797 55.6259 15.2331 55.6259 13.8499C55.6259 12.4788 56.0748 11.3383 56.9727 10.4283C57.8705 9.50617 59.0232 9.0451 60.4307 9.0451C61.7653 9.0451 62.8634 9.50617 63.7249 10.4283C64.5985 11.3504 65.0353 12.491 65.0353 13.8499C65.0353 14.1532 65.0049 14.4748 64.9443 14.8145H58.0829ZM58.0465 12.9945H62.6875C62.554 12.3757 62.2749 11.9146 61.8503 11.6113C61.4377 11.308 60.9645 11.1563 60.4307 11.1563C59.7997 11.1563 59.278 11.3201 58.8655 11.6477C58.4529 11.9632 58.1799 12.4121 58.0465 12.9945ZM71.6128 11.5567H69.5562V15.3423C69.5562 15.6578 69.6351 15.8883 69.7928 16.0339C69.9506 16.1795 70.1811 16.2644 70.4844 16.2887C70.7878 16.3008 71.1639 16.2948 71.6128 16.2705V18.3999C69.9991 18.5819 68.8586 18.4302 68.1912 17.9449C67.536 17.4596 67.2084 16.592 67.2084 15.3423V11.5567H65.625V9.2999H67.2084V7.4617L69.5562 6.7519V9.2999H71.6128V11.5567ZM74.433 8.2079C74.0447 8.2079 73.705 8.06837 73.4138 7.7893C73.1347 7.4981 72.9952 7.15837 72.9952 6.7701C72.9952 6.38184 73.1347 6.0421 73.4138 5.7509C73.705 5.4597 74.0447 5.3141 74.433 5.3141C74.8334 5.3141 75.1731 5.4597 75.4522 5.7509C75.7434 6.0421 75.889 6.38184 75.889 6.7701C75.889 7.15837 75.7434 7.4981 75.4522 7.7893C75.1731 8.06837 74.8334 8.2079 74.433 8.2079ZM73.2682 18.3999V9.2999H75.616V18.3999H73.2682Z" fill="#93959D"/>
</svg>

<svg xmlns="http://www.w3.org/2000/svg" width="77" height="24" fill="none"><path fill="#C5C6CB" fill-rule="evenodd" d="m12.753 4.423-2.344 2.35V3.5h-4.22v3.273l-2.27-2.275L.932 7.487l2.206 2.21H0v1.933h6.34c.404 0 .81-.099 1.128-.354.805-.638.944-1.868.944-4.23 0 2.362.139 3.592.943 4.23.319.25.73.354 1.13.354h6.31V9.75l-.053-.052h-3.288l2.28-2.287-2.986-2.994zm4.047 7.741h-6.177c-.272 0-.55.052-.799.162-1.221.552-1.407 1.736-1.407 4.492 0-1.752-.254-2.948-.671-3.696-.342-.61-1.007-.958-1.708-.958H0v1.77h3.265L.944 16.261l2.987 2.994 2.258-2.263V20.3h4.22v-3.308l2.396 2.403h.012l2.976-2.989-2.46-2.466H16.8z" clip-rule="evenodd"/><path fill="#93959D" d="M24.306 18.655q-2.057 0-3.44-1.384-1.365-1.383-1.365-3.421 0-2.039 1.365-3.422 1.383-1.383 3.44-1.383 1.329 0 2.42.637 1.092.638 1.657 1.71l-2.02 1.184a2.05 2.05 0 0 0-.838-.892 2.36 2.36 0 0 0-1.237-.327q-1.056 0-1.748.71-.69.69-.691 1.783 0 1.074.691 1.784.692.69 1.748.691.71 0 1.255-.31.565-.327.838-.891l2.038 1.165a4.6 4.6 0 0 1-1.693 1.729 4.7 4.7 0 0 1-2.42.637M37.09 17.27q-1.401 1.384-3.422 1.384t-3.421-1.384q-1.384-1.4-1.384-3.421t1.384-3.403q1.4-1.402 3.421-1.402t3.422 1.402q1.401 1.383 1.401 3.403t-1.401 3.422m-5.187-1.62q.71.71 1.765.71 1.056 0 1.766-.71t.71-1.801-.71-1.802-1.766-.71-1.765.71q-.692.71-.692 1.802t.692 1.802M45.02 9.046q1.492 0 2.457 1.001.984 1.001.983 2.767V18.4h-2.348v-5.296q0-.91-.491-1.383-.492-.492-1.31-.492-.91 0-1.456.564t-.546 1.693V18.4H39.96V9.3h2.348v1.02q.855-1.275 2.711-1.275m9.977-1.383q-1.93-.145-1.93 1.547v.09h1.93v2.258h-1.93V18.4H50.72v-6.843h-1.31V9.3h1.31v-.091q0-1.93 1.074-2.93 1.073-1.002 3.203-.874zm3.086 7.153q.472 1.71 2.566 1.71 1.347 0 2.038-.91l1.893 1.092q-1.347 1.948-3.967 1.948-2.257 0-3.622-1.365t-1.365-3.44q0-2.057 1.347-3.422 1.347-1.383 3.458-1.383 2.001 0 3.294 1.383 1.31 1.383 1.31 3.422 0 .455-.09.965zm-.036-1.82h4.64q-.2-.929-.837-1.384a2.33 2.33 0 0 0-1.42-.455q-.945 0-1.565.492-.618.473-.819 1.347m13.566-1.438h-2.057v3.785q0 .473.237.692t.691.255q.456.018 1.129-.019v2.13q-2.42.273-3.422-.455-.983-.728-.983-2.603v-3.785h-1.583V9.3h1.583V7.462l2.348-.71V9.3h2.057zm2.82-3.35a1.427 1.427 0 0 1-1.438-1.437q0-.582.419-1.02.436-.435 1.019-.436.6 0 1.02.437.436.436.436 1.02 0 .581-.437 1.018-.419.42-1.019.419M73.268 18.4V9.3h2.348v9.1z"/></svg>
